X:95
T:Saul, The
T:Yank, The
S:John Moore's Book 2
Z:Transcribed by Steve Mansfield 05/2021
%%VWML: Moore2-4494-p73-0
F:http://www.vwml.org/record/Moore2/4494/p73
M:C
L:1/8
K:G
G2{f}g2 E2{^d}e2 | A2d>c BAG2 | B>cd2 c>de2 | .d2.f2 g2z2 :| 
|: B2B2 d3B | e>c A>G (GF)ED | B2B>c d3B | e>c A>F G4 :| 

